X: 18381
T: Hungarian Folk Tune
R: reel
M: 4/4
K: Aminor
AB cd e2 e2|ed gf e2 e2|AB cd e2 e2|ed gf e2 e2|
|:aa ba gg ag|ba gf e2 e2|dd ed cc dc|ed cB A2 A2:|

